modules/salescenter/install/components/bitrix/salescenter.paysystem.panel/templates/.default/images/yandexcheckout_sberbank_sms.svg

<svg width="106" height="57" viewBox="0 0 106 57" fill="none" xmlns="http://www.w3.org/2000/svg">
<path fill-rule="evenodd" clip-rule="evenodd" d="M23.9077 1.62753L9.95434 9.55879L3.46194 5.8669C3.8015 5.41077 4.16464 4.97267 4.54985 4.55438L9.95434 7.6216L22.0899 0.729126C22.7153 0.987473 23.3226 1.28762 23.9077 1.62753ZM26.8486 3.72616C26.4136 3.31571 25.9567 2.92911 25.48 2.56805L9.95434 11.3977L2.54247 7.17941C2.26197 7.66555 2.0089 8.16701 1.78444 8.68144L9.95434 13.3279L26.8486 3.72616ZM48.9438 4.32978C48.0314 5.17905 47.7226 7.70582 47.7226 9.31313C47.7226 12.4716 49.0632 13.8192 51.239 13.8192C53.4289 13.8192 55.0713 12.5699 55.0713 9.76936C55.0713 7.38998 53.864 6.45648 51.9619 6.45648C51.017 6.46357 50.0886 6.70472 49.2597 7.15836C49.2964 6.43579 49.54 5.73899 49.9616 5.15098C50.4388 4.68774 52.3971 4.34381 54.608 3.97182L54.3624 2.62421C51.8777 3.08043 49.744 3.58578 48.9438 4.32978ZM43.7429 3.33311C40.3739 3.33311 38.4928 5.41067 38.4928 8.61125C38.4928 11.7276 40.3037 13.7982 43.799 13.7982C44.8262 13.8287 45.8493 13.657 46.8101 13.2928L46.4451 12.0856C45.6717 12.3324 44.8636 12.4532 44.0517 12.4435C41.7706 12.4435 40.0931 11.2433 40.0931 8.47088C40.0931 5.75459 41.7145 4.6386 43.771 4.65264C44.6491 4.64574 45.5214 4.79548 46.3469 5.09483L46.7961 3.92269C45.8373 3.4937 44.7924 3.29193 43.7429 3.33311ZM53.5482 9.82551C53.5482 8.58318 53.0077 7.6216 51.5689 7.6216C50.7419 7.65127 49.9347 7.88258 49.2176 8.2954C49.2035 8.54808 49.1895 8.9271 49.1895 9.17978C49.1895 11.5241 49.8984 12.612 51.3513 12.612C53.0709 12.612 53.5482 11.1801 53.5482 9.82551ZM59.9072 5.64931C57.9139 5.64931 56.3206 6.81444 56.3206 9.91675C56.3206 12.9419 57.8437 13.8613 60.209 13.8613C61.1184 13.873 62.0229 13.7281 62.8832 13.4332L62.6235 12.2681C61.9176 12.4929 61.1815 12.6089 60.4407 12.612C59.0509 12.612 57.8577 12.1979 57.8437 10.1273H63.0587V9.6009C63.0587 7.04606 62.1252 5.64931 59.9072 5.64931ZM61.4865 9.08151C61.4865 7.69179 60.9811 6.78636 59.816 6.78636C58.7702 6.78636 57.9911 7.54439 57.8858 9.08151H61.4865ZM66.2312 5.89497H64.6519V16.6267H66.2312V13.735C66.6441 13.7726 67.0589 13.7866 67.4735 13.7771C69.6072 13.7771 71.5234 12.7734 71.5234 9.57283C71.5234 6.96183 70.2459 5.66335 68.3719 5.66335C67.5846 5.66699 66.8249 5.95346 66.2312 6.47051V5.89497ZM69.9862 9.64302C69.9862 8.2182 69.4809 6.94077 67.9508 6.94077C67.3335 6.97166 66.7375 7.17601 66.2312 7.53035V12.4997C66.631 12.5818 67.0374 12.6288 67.4454 12.64C69.2633 12.64 69.9862 11.3907 69.9862 9.64302ZM74.0572 4.32978C73.1447 5.17905 72.8359 7.70582 72.8359 9.31313C72.8359 12.4716 74.1624 13.8192 76.3523 13.8192C78.5422 13.8192 80.1846 12.5699 80.1846 9.76936C80.1846 7.38998 78.9773 6.45648 77.0752 6.45648C76.1303 6.46357 75.2019 6.70472 74.373 7.15836C74.4097 6.43579 74.6533 5.73899 75.0749 5.15098C75.5522 4.68774 77.5104 4.34381 79.7213 3.97182L79.4757 2.62421C76.991 3.08043 74.8573 3.58578 74.0572 4.32978ZM78.6615 9.82551C78.6615 8.58318 78.121 7.6216 76.6822 7.6216C75.8552 7.65127 75.048 7.88258 74.3309 8.2954C74.3168 8.54808 74.3028 8.9271 74.3028 9.17978C74.3028 11.5241 75.0117 12.612 76.4646 12.612C78.1842 12.612 78.6615 11.1801 78.6615 9.82551ZM84.3116 9.17978C82.9359 9.19381 81.1602 9.6009 81.1602 11.5802C81.1602 13.0261 82.1358 13.8192 83.6027 13.8192C84.5481 13.7982 85.4565 13.4483 86.1716 12.8296C86.319 13.5314 87.1121 13.7771 87.9263 13.7771C88.0275 13.775 88.1283 13.7657 88.2281 13.749L88.3475 12.5979C88.1558 12.6427 87.9541 12.6018 87.7951 12.4859C87.636 12.3699 87.5353 12.1905 87.5192 11.9943V7.90235C87.5192 6.30908 86.4734 5.64931 84.5713 5.64931C83.6163 5.63997 82.6689 5.82132 81.7849 6.18274L82.1077 7.31979C82.8201 7.06824 83.5702 6.94007 84.3257 6.94077C85.4908 6.94077 86.0383 7.22855 86.0383 8.30944V9.1517L84.3116 9.17978ZM86.0383 11.9241V10.1133L84.3537 10.1905C83.2658 10.2186 82.6412 10.6748 82.6412 11.4819C82.6412 12.2681 83.2237 12.5418 83.9958 12.5418C84.7199 12.5241 85.4257 12.3107 86.0383 11.9241ZM91.169 5.89497H89.6459V13.756H91.169V10.3589H94.903V13.756H96.4261V5.89497H94.903V9.16574H91.169V5.89497ZM98.3001 5.89497H99.8232V13.756H98.3001V5.89497ZM99.8794 9.67109L102.132 12.3382C102.74 13.2289 103.73 13.7844 104.807 13.8403L105.066 12.6962C104.284 12.4271 103.598 11.9341 103.094 11.2784L101.522 9.55879L104.75 5.89497H103.038L99.8794 9.67109ZM31.6144 14.8369C31.5001 23.3474 24.5685 30.1865 16.0572 30.1865C7.54593 30.1865 0.61433 23.3474 0.5 14.8369C0.5 14.493 0.514038 14.1491 0.535094 13.8122L9.95434 19.1675L29.9018 7.82514C31.0304 9.98985 31.618 12.3957 31.6144 14.8369ZM1.18784 10.2817L9.95434 15.2651L28.0278 4.98954C28.3926 5.42133 28.7324 5.87361 29.0455 6.34418L9.95434 17.1953L0.766715 11.9733C0.870609 11.401 1.01128 10.8359 1.18784 10.2817Z" fill="#289D37"/>
<path fill-rule="evenodd" clip-rule="evenodd" d="M76.7734 17.4339L77.4262 16.718C77.8367 17.2542 78.4705 17.5724 79.1458 17.5813C79.8251 17.5729 80.4634 17.2551 80.8794 16.718L81.5181 17.4339C81.0116 18.2584 80.1134 18.7607 79.1458 18.7607C78.1782 18.7607 77.28 18.2584 76.7734 17.4339ZM38.542 22.7753C38.542 19.5747 40.5142 17.5603 43.778 17.5603C47.2102 17.5603 48.8035 19.8063 48.8035 22.8033C48.8035 25.9548 46.9505 28.0534 43.5394 28.0534C40.2195 28.0534 38.542 25.9267 38.542 22.7753ZM47.2172 22.7893C47.2172 20.5292 46.0872 18.8166 43.6868 18.8166C41.181 18.8166 40.1142 20.5292 40.1142 22.7612C40.1142 24.93 41.1389 26.79 43.5885 26.79C46.1925 26.79 47.2172 25.0493 47.2172 22.7893ZM51.8426 20.1783H50.3827V28.0394H51.8426V24.6984H55.4503V28.0394H56.9804V20.1783H55.4503V23.5052H51.8426V20.1783ZM58.1455 27.0146C58.7778 26.8283 59.3213 26.4194 59.6756 25.8635C60.1108 25.0564 60.3915 22.8876 60.4757 20.1783H65.5644V28.0394H64.1185V21.3575H61.8163C61.5988 24.0948 61.325 25.7653 60.7986 26.7268C60.3082 27.523 59.5152 28.0854 58.6017 28.285L58.1455 27.0146ZM70.1828 23.5192C68.8001 23.5333 67.0173 23.9334 67.0173 25.9197C67.0173 27.3796 67.9929 28.1657 69.4668 28.1657C70.4143 28.1445 71.3248 27.7946 72.0428 27.176C72.1901 27.8779 72.9903 28.1236 73.8045 28.1236C73.9056 28.1215 74.0065 28.1121 74.1063 28.0955L74.2256 26.9444C74.0339 26.9892 73.8323 26.9483 73.6732 26.8323C73.5142 26.7164 73.4135 26.537 73.3974 26.3408V22.2348C73.3974 20.6415 72.3516 19.9747 70.4425 19.9747C69.485 19.964 68.5351 20.1453 67.649 20.5082L67.9648 21.6452C68.6833 21.3995 69.4374 21.2738 70.1968 21.2732C71.3619 21.2732 71.9164 21.561 71.9164 22.6419V23.4912L70.1828 23.5192ZM71.9164 26.2706V24.4527L70.2249 24.5229C69.1299 24.558 68.5053 25.0143 68.5053 25.8214C68.5031 26.1644 68.6528 26.4907 68.9142 26.7128C69.1755 26.9349 69.5218 27.03 69.8599 26.9725C70.5956 26.9255 71.3055 26.6833 71.9164 26.2706ZM77.1174 20.1783H75.6785V28.0394H77.1174L80.5145 23.2736L81.1953 22.1787L81.1532 23.2596V28.0394H82.6833V20.1783H81.1532L77.7631 24.9721L77.0752 26.039L77.1174 24.9862V20.1783ZM86.2278 20.1783H84.6977V28.0394H86.2278V24.6984H89.9688V28.0394H91.4989V20.1783H89.9688V23.5052H86.2278V20.1783Z" fill="#F59725"/>
<path d="M24.0032 49.7023C25.3705 49.7023 26.4789 48.5939 26.4789 47.2266C26.4789 45.8594 25.3705 44.751 24.0032 44.751C22.6359 44.751 21.5276 45.8594 21.5276 47.2266C21.5276 48.5939 22.6359 49.7023 24.0032 49.7023Z" fill="#00EEBC"/>
<path d="M22.5629 42.92L17.6429 38L11.9816 43.6613C10.0376 45.6053 10.0376 48.7575 11.9816 50.7014L13.3813 52.1011C13.3818 52.1011 22.6359 42.92 22.5629 42.92Z" fill="#00EEBC"/>
<path d="M15.5897 44.5507C15.5436 44.5052 15.4981 44.4596 15.4531 44.4146C15.4509 44.413 15.4493 44.4108 15.4476 44.4092C15.3982 44.3603 15.3494 44.3115 15.3017 44.2638C15.3011 44.2632 15.3 44.2621 15.2995 44.2616C14.821 43.7491 14.528 43.0605 14.528 42.3039C14.528 41.511 14.8495 40.7939 15.3691 40.2743L11.9821 43.6613C11.9124 43.731 11.8455 43.8018 11.7813 43.8742C11.7747 43.8813 11.7681 43.889 11.7616 43.8961C11.7605 43.8972 11.7599 43.8978 11.7588 43.8989C11.7533 43.9049 11.7478 43.911 11.7424 43.917C11.7429 43.917 11.7429 43.917 11.7435 43.917C9.99535 45.8714 10.0595 48.8749 11.9366 50.7519L17.5979 56.4132L22.5179 51.4932C22.5668 51.4932 18.3243 47.2689 15.5897 44.5507Z" fill="url(#paint0_linear)"/>
<path fill-rule="evenodd" clip-rule="evenodd" d="M29.8557 43.9444C29.8557 41.551 31.3816 40.3505 33.2018 40.3505H35.053V51.7674H33.8137V47.3912H32.7835L30.8239 51.7674H29.391L31.5443 47.0891C30.5296 46.5779 29.8557 45.6562 29.8557 43.9444ZM33.1476 41.3884C32.1562 41.3884 31.188 42.039 31.188 43.9444C31.188 45.7801 32.071 46.3688 33.1476 46.3688H33.806V41.3884H33.1476ZM39.77 47.0968H37.9111V43.6965H36.6641V51.7132H37.9111V48.1192H39.77V51.7132H41.0016V43.6965H39.77V47.0968ZM42.2254 50.683C42.9612 48.9867 43.0386 46.5004 43.0386 44.3704V43.6888H46.7797V50.683H47.4149V53.2778H46.3073V51.7054H42.8527V53.2778H41.7296V50.683H42.2254ZM44.154 44.8351C44.154 46.5237 44.0765 48.9867 43.4027 50.6908H45.5482V44.688H44.154V44.8351ZM52.5502 50.2183C52.2326 50.4429 51.6672 50.7605 50.9701 50.7605C49.9787 50.7605 49.4674 49.8078 49.4674 47.9953H52.829V47.3137C52.829 44.595 51.946 43.5958 50.606 43.5958C48.8943 43.5958 48.1739 45.4703 48.1739 48.0495C48.1739 50.5126 49.1964 51.8371 50.8616 51.8371C51.6594 51.8371 52.3333 51.5815 52.8445 51.1865L52.5502 50.2183ZM50.5983 44.6028C51.3186 44.6028 51.5433 45.6019 51.5433 46.9729H49.4829C49.5604 45.54 49.8315 44.6028 50.5983 44.6028ZM58.8473 51.7054L56.5546 47.4609L56.5547 47.4606L58.553 43.6965H58.5489L58.553 43.6888H57.2904L55.3541 47.3989V43.6965V43.6888H54.107V43.6965V51.7054V51.7132H55.3541V51.7054V47.7165L57.4841 51.7132H58.8396L58.8354 51.7054H58.8473ZM63.1771 45.1682L63.1712 45.1632L63.1693 45.1759C62.8363 44.8894 62.356 44.6183 61.8448 44.6183C61.4276 44.6183 61.0648 44.8374 60.797 45.2782C60.4966 45.7789 60.319 46.5621 60.319 47.6313C60.319 49.6374 60.7992 50.7837 61.8061 50.7837C62.418 50.7837 62.875 50.5436 63.1693 50.288L63.4482 51.2175L63.4401 51.2242L63.4404 51.2252C63.0067 51.5893 62.4955 51.8294 61.7596 51.8294C60.0324 51.8294 58.9945 50.4429 58.9945 47.7087C58.9945 46.0266 59.4303 44.7526 60.2833 44.0924C60.7082 43.7599 61.2372 43.5804 61.8681 43.5804C62.5884 43.5804 63.0067 43.774 63.3552 43.9909L63.1771 45.1682ZM72.4485 51.7674L68.8933 45.6174L72.1619 40.3505H71.4028L68.08 45.6871V40.3505H67.2899V51.7674H68.08V45.7491L71.5577 51.7674H72.4485ZM77.3282 45.9195V50.3267C77.3282 50.8844 77.4056 51.5041 77.4986 51.7984H76.817C76.7473 51.597 76.6698 51.2872 76.6233 50.714C76.2361 51.4808 75.6629 51.961 74.8728 51.961C73.7885 51.961 73.0449 51.0935 73.0449 49.6219C73.0449 47.8946 73.9821 46.9961 75.7171 46.9961H76.5923V45.9892C76.5923 44.7577 76.1354 44.231 75.2601 44.231C74.5785 44.231 73.9589 44.5563 73.5793 45.114L73.3702 44.3936C73.6878 43.9831 74.3539 43.5804 75.2601 43.5804C76.5846 43.5804 77.3282 44.3162 77.3282 45.9195ZM75.0355 51.3569C75.7868 51.3569 76.3058 50.6365 76.5923 49.7768V47.5538H75.7326C74.4158 47.5538 73.7807 48.158 73.7807 49.5677C73.7807 50.6985 74.2764 51.3569 75.0355 51.3569ZM82.9514 51.078L82.7113 50.4507C82.7113 50.4507 82.1459 51.3182 81.0925 51.3182C79.83 51.3182 79.2646 50.0014 79.2646 47.7939C79.2646 45.5167 79.8455 44.2232 81.0925 44.2232C81.7896 44.2232 82.3086 44.6415 82.6649 45.1372L82.874 44.3394C82.5177 43.9057 81.9368 43.5881 81.0925 43.5881C79.4272 43.5881 78.5055 45.145 78.5055 47.8017C78.5055 50.4274 79.4427 51.9765 81.077 51.9765C82.355 51.9765 82.9514 51.078 82.9514 51.078ZM88.0712 50.4507L88.3114 51.078C88.3114 51.078 87.715 51.9765 86.4369 51.9765C84.8026 51.9765 83.8654 50.4274 83.8654 47.8017C83.8654 45.145 84.7871 43.5881 86.4524 43.5881C87.2889 43.5881 87.8776 43.9057 88.2339 44.3394L88.0248 45.1372C87.6685 44.6415 87.1495 44.2232 86.4602 44.2232C85.2131 44.2232 84.6322 45.5167 84.6322 47.7939C84.6322 50.0014 85.1976 51.3182 86.4602 51.3182C87.5058 51.3182 88.0712 50.4507 88.0712 50.4507ZM93.2917 50.3267V45.9195C93.2917 44.3162 92.5482 43.5804 91.2314 43.5804C90.3252 43.5804 89.6591 43.9831 89.3415 44.3936L89.5506 45.114C89.9302 44.5563 90.5498 44.231 91.2314 44.231C92.1067 44.231 92.5637 44.7577 92.5637 45.9892V46.9961H91.6884C89.9534 46.9961 89.0162 47.8946 89.0162 49.6219C89.0162 51.0935 89.7598 51.961 90.8442 51.961C91.6419 51.961 92.2151 51.4808 92.5946 50.714C92.6411 51.2872 92.7263 51.597 92.7883 51.7984H93.4699C93.3769 51.5041 93.2917 50.8844 93.2917 50.3267ZM92.5637 49.7768C92.2771 50.6365 91.7504 51.3569 91.0068 51.3569C90.2477 51.3569 89.752 50.6985 89.752 49.5677C89.752 48.158 90.3872 47.5538 91.7039 47.5538H92.5637V49.7768Z" fill="#333333"/>
<defs>
<linearGradient id="paint0_linear" x1="8.53123" y1="49.9284" x2="19.3949" y2="55.974" gradientUnits="userSpaceOnUse">
<stop stop-color="#00A9F9"/>
<stop offset="0.9899" stop-color="#0B89EA"/>
</linearGradient>
</defs>
</svg>

<svg xmlns="http://www.w3.org/2000/svg" width="94" height="57" viewBox="0 0 106 64" fill="none"><g fill-rule="evenodd"><path d="M23.908 1.628L9.954 9.56 3.462 5.867A16.35 16.35 0 0 1 4.55 4.554l5.404 3.067L22.1.73a15.08 15.08 0 0 1 1.818.898zm2.94 2.1a16.59 16.59 0 0 0-1.369-1.158l-15.526 8.83L2.542 7.18c-.28.486-.534.988-.758 1.502l8.17 4.646L26.85 3.726zm22.095.604c-.912.85-1.22 3.376-1.22 4.983 0 3.16 1.34 4.506 3.516 4.506 2.2 0 3.832-1.25 3.832-4.05 0-2.38-1.207-3.313-3.11-3.313a5.72 5.72 0 0 0-2.702.702c.037-.723.28-1.42.702-2.007.477-.463 2.436-.807 4.646-1.18l-.246-1.348c-2.485.456-4.618.962-5.42 1.706zm-5.2-.997c-3.37 0-5.25 2.078-5.25 5.278 0 3.116 1.81 5.187 5.306 5.187 1.027.03 2.05-.14 3.01-.505l-.365-1.207c-.773.247-1.58.368-2.393.358-2.28 0-3.96-1.2-3.96-3.973 0-2.716 1.62-3.832 3.678-3.818.878-.007 1.75.143 2.576.442l.45-1.172a6.82 6.82 0 0 0-3.053-.59zm9.805 6.492c0-1.242-.54-2.204-1.98-2.204a5.08 5.08 0 0 0-2.351.674l-.028.884c0 2.344.71 3.432 2.162 3.432 1.72 0 2.197-1.432 2.197-2.786zm6.36-4.176c-1.993 0-3.587 1.165-3.587 4.267 0 3.025 1.523 3.945 3.888 3.945a7.93 7.93 0 0 0 2.674-.428l-.26-1.165a7.29 7.29 0 0 1-2.183.344c-1.4 0-2.583-.414-2.597-2.485h5.215V9.6c0-2.555-.934-3.952-3.15-3.952zm1.58 3.432c0-1.4-.505-2.295-1.67-2.295-1.046 0-1.825.758-1.93 2.295h3.6zm4.745-3.187h-1.58v10.732h1.58v-2.892c.413.038.828.052 1.242.042 2.134 0 4.05-1.004 4.05-4.204 0-2.61-1.277-3.91-3.15-3.91-.787.004-1.547.3-2.14.807v-.576zm3.755 3.748c0-1.425-.505-2.702-2.035-2.702-.617.03-1.213.235-1.72.6v4.97a6.98 6.98 0 0 0 1.214.14c1.818 0 2.54-1.25 2.54-2.997zm4.07-5.313c-.912.85-1.22 3.376-1.22 4.983 0 3.16 1.327 4.506 3.516 4.506s3.832-1.25 3.832-4.05c0-2.38-1.207-3.313-3.11-3.313a5.72 5.72 0 0 0-2.702.702c.037-.723.28-1.42.702-2.007.477-.463 2.436-.807 4.646-1.18l-.246-1.348c-2.485.456-4.618.962-5.42 1.706zm4.604 5.496c0-1.242-.54-2.204-1.98-2.204a5.08 5.08 0 0 0-2.351.674l-.028.884c0 2.344.71 3.432 2.162 3.432 1.72 0 2.197-1.432 2.197-2.786zm5.65-.646c-1.376.014-3.15.42-3.15 2.4 0 1.446.976 2.24 2.442 2.24.945-.02 1.854-.37 2.57-1 .147.702.94.948 1.755.948.1-.002.202-.012.302-.028l.12-1.15c-.192.045-.393.004-.552-.112s-.26-.295-.276-.49V7.902c0-1.593-1.046-2.253-2.948-2.253a7.18 7.18 0 0 0-2.786.533l.323 1.137c.712-.252 1.463-.38 2.218-.38 1.165 0 1.713.288 1.713 1.37v.842l-1.727.028zm1.727 2.744v-1.81l-1.685.077c-1.088.028-1.713.484-1.713 1.29 0 .786.582 1.06 1.355 1.06a4.01 4.01 0 0 0 2.043-.618zm5.13-6.03h-1.523v7.86h1.523V10.36h3.734v3.397h1.523v-7.86h-1.523v3.27H91.17v-3.27zm7.13 0h1.523v7.86H98.3v-7.86zm1.58 3.776l2.253 2.667c.608.89 1.598 1.446 2.675 1.502l.26-1.144a4.22 4.22 0 0 1-1.972-1.418l-1.572-1.72 3.228-3.664h-1.712L99.88 9.67zm-68.265 5.166a15.56 15.56 0 0 1-31.114 0 16.47 16.47 0 0 1 .035-1.025l9.42 5.355L29.902 7.825a15.12 15.12 0 0 1 1.713 7.012zM1.188 10.282l8.767 4.983L28.028 5a14.82 14.82 0 0 1 1.018 1.355l-19.09 10.85-9.188-5.222a13.54 13.54 0 0 1 .421-1.691z" fill="#289d37"/><path d="M76.773 17.434l.653-.716c.41.536 1.044.854 1.72.863a2.23 2.23 0 0 0 1.734-.863l.64.716c-.507.824-1.405 1.327-2.372 1.327s-1.866-.502-2.372-1.327zm-38.23 5.34c0-3.2 1.972-5.215 5.236-5.215 3.432 0 5.025 2.246 5.025 5.243 0 3.15-1.853 5.25-5.264 5.25-3.32 0-4.997-2.127-4.997-5.278zm8.675.014c0-2.26-1.13-3.973-3.53-3.973-2.506 0-3.573 1.713-3.573 3.944 0 2.17 1.025 4.03 3.474 4.03 2.604 0 3.63-1.74 3.63-4zm4.625-2.61h-1.46v7.86h1.46v-3.34h3.608v3.34h1.53v-7.86h-1.53v3.327h-3.608v-3.327zm6.303 6.836a2.73 2.73 0 0 0 1.53-1.151c.435-.807.716-2.976.8-5.685h5.09v7.86H64.12v-6.682h-2.302c-.218 2.737-.49 4.408-1.018 5.37-.5.796-1.283 1.36-2.197 1.558l-.456-1.27zm12.037-3.495c-1.383.014-3.165.414-3.165 2.4 0 1.46.976 2.246 2.45 2.246.947-.02 1.858-.37 2.576-1 .147.702.948.948 1.762.948a2.08 2.08 0 0 0 .302-.028l.12-1.15c-.192.045-.393.004-.552-.112s-.26-.295-.276-.492v-4.106c0-1.593-1.046-2.26-2.955-2.26a7.16 7.16 0 0 0-2.794.533l.316 1.137a6.91 6.91 0 0 1 2.232-.372c1.165 0 1.72.288 1.72 1.37v.85l-1.734.028zm1.734 2.75v-1.818l-1.692.07c-1.095.035-1.72.49-1.72 1.298a1.16 1.16 0 0 0 1.355 1.151c.736-.047 1.446-.29 2.057-.702zm5.2-6.092h-1.44v7.86h1.44l3.397-4.766.68-1.095-.042 1.08v4.78h1.53v-7.86h-1.53l-3.4 4.794-.688 1.067.042-1.053v-4.808zm9.1 0h-1.53v7.86h1.53v-3.34h3.74v3.34h1.53v-7.86h-1.53v3.327h-3.74v-3.327z" fill="#f59725"/></g><g clip-path="url(#C)"><g clip-path="url(#D)"><g fill="#000"><path d="M52.67 51.214h-2.492l-1.764 3h-.908l-.03-6.474h-2.36v11.7h2.36l.03-3.2h.902l2.342 3.2h2.614L50.3 55.17l2.36-3.957zm17.855 3.85a6.37 6.37 0 0 0-1.544-.698l-.52-.2-.14-.05c-.324-.117-.665-.24-.677-.558a.54.54 0 0 1 .063-.272c.044-.084.1-.156.2-.208a1.15 1.15 0 0 1 .578-.19 1.92 1.92 0 0 1 1.261.363l.064.04 1.26-1.4-.064-.05a3.09 3.09 0 0 0-.51-.357 3.47 3.47 0 0 0-1.046-.374 4 4 0 0 0-1.608 0 3.05 3.05 0 0 0-1.41.558c-.264.2-.484.447-.65.728a2.41 2.41 0 0 0-.311.913 2.3 2.3 0 0 0 .428 1.641 3.5 3.5 0 0 0 1.735 1.005l.104.033.237.078c.856.28 1.1.4 1.237.558a.5.5 0 0 1 .104.29c0 .396-.503.558-.844.658a1.84 1.84 0 0 1-.72-.013c-.237-.052-.46-.15-.656-.288a2.81 2.81 0 0 1-.798-.776l-1.417 1.4.04.056c.63.76 1.512 1.3 2.498 1.496a5.57 5.57 0 0 0 .682.084h.237a3.68 3.68 0 0 0 2.174-.653c.428-.292.756-.7.943-1.172a2.22 2.22 0 0 0 .118-.988 2.24 2.24 0 0 0-.326-.943 2.39 2.39 0 0 0-.717-.72zm7.62 0a6.32 6.32 0 0 0-1.538-.698l-.526-.2-.133-.05c-.33-.117-.665-.24-.682-.558a.58.58 0 0 1 .071-.27.61.61 0 0 1 .189-.21 1.15 1.15 0 0 1 .578-.19c.452-.03.9.1 1.26.363l.058.04 1.26-1.4-.058-.05a2.99 2.99 0 0 0-.515-.357 3.45 3.45 0 0 0-1.041-.374c-.532-.1-1.08-.1-1.613 0a3.1 3.1 0 0 0-1.41.558c-.266.197-.488.443-.655.724a2.4 2.4 0 0 0-.317.911 2.26 2.26 0 0 0 .428 1.64 3.5 3.5 0 0 0 1.735 1.005l.098.033.237.078c.862.28 1.104.4 1.243.558a.44.44 0 0 1 .098.29c0 .396-.497.558-.84.66a1.85 1.85 0 0 1-.723-.013 1.84 1.84 0 0 1-.66-.288 2.96 2.96 0 0 1-.798-.776l-1.417 1.4.046.056c.63.76 1.512 1.3 2.498 1.496a5.57 5.57 0 0 0 .682.084h.237a3.68 3.68 0 0 0 2.174-.653 2.57 2.57 0 0 0 .943-1.172 2.23 2.23 0 0 0 .118-.988 2.24 2.24 0 0 0-.326-.943 2.38 2.38 0 0 0-.706-.714zm-17.73-3.85v.804h-.104c-.646-.624-1.52-.977-2.434-.982a4.14 4.14 0 0 0-1.633.303c-.516.2-.98.524-1.363.92-.77.833-1.185 1.92-1.157 3.036-.03 1.136.383 2.24 1.157 3.097a3.87 3.87 0 0 0 1.34.92c.5.2 1.06.312 1.614.298a3.99 3.99 0 0 0 2.486-.921h.093v.72h2.452v-8.192h-2.452zm.12 4.124c.025.66-.204 1.306-.642 1.814a2.15 2.15 0 0 1-.759.526 2.22 2.22 0 0 1-.918.166c-.306.005-.608-.057-.886-.18a2.02 2.02 0 0 1-.716-.534 2.67 2.67 0 0 1-.625-1.836c-.02-.645.207-1.274.636-1.77a2.06 2.06 0 0 1 .722-.525 2.15 2.15 0 0 1 .885-.178c.313-.01.624.048.9.17a2.11 2.11 0 0 1 .749.529 2.64 2.64 0 0 1 .642 1.819zm26.55-4.124v.804h-.104c-.644-.623-1.517-.975-2.43-.982a4.14 4.14 0 0 0-1.635.304 4.02 4.02 0 0 0-1.366.918c-.77.833-1.184 1.92-1.156 3.036-.03 1.136.383 2.24 1.156 3.097a3.87 3.87 0 0 0 1.34.92 3.98 3.98 0 0 0 1.615.298 3.99 3.99 0 0 0 2.486-.921h.093v.72h2.452v-8.192h-2.452zm.12 4.124a2.6 2.6 0 0 1-.642 1.814 2.15 2.15 0 0 1-.759.526 2.22 2.22 0 0 1-.918.166 2.09 2.09 0 0 1-.885-.18 2.02 2.02 0 0 1-.716-.534 2.67 2.67 0 0 1-.624-1.836c-.02-.645.207-1.274.636-1.77a2.06 2.06 0 0 1 .722-.525 2.15 2.15 0 0 1 .885-.178 2.18 2.18 0 0 1 .911.169c.287.12.542.3.748.53.44.5.67 1.157.642 1.82z"/></g><path d="M29.013 46.36c-5.1 0-9.14 3.963-9.14 8.82 0 4.912 4.107 8.82 9.14 8.82s9.14-3.964 9.14-8.82-4.107-8.82-9.14-8.82zm0 12.058c-1.85 0-3.413-1.507-3.413-3.294s1.562-3.294 3.413-3.294 3.412 1.507 3.412 3.294c-.058 1.842-1.562 3.294-3.412 3.294z" fill="url(#A)"/><path d="M19.816 48.872v12.84h-3.24l-4.164-12.84h7.403z" fill="url(#B)"/></g></g><defs><linearGradient id="A" x1="29.013" y1="46.36" x2="29.013" y2="64" gradientUnits="userSpaceOnUse"><stop stop-color="#0160d1"/><stop offset="1" stop-color="#00479c"/></linearGradient><linearGradient id="B" x1="16.114" y1="48.872" x2="16.114" y2="61.711" gradientUnits="userSpaceOnUse"><stop stop-color="#0160d1"/><stop offset="1" stop-color="#00479c"/></linearGradient><clipPath id="C"><path fill="#fff" transform="translate(9.5 46)" d="M0 0h87v18H0z"/></clipPath><clipPath id="D"><path fill="#fff" transform="translate(12.412 46.36)" d="M0 0h77.172v17.64H0z"/></clipPath></defs></svg>
